X: 517
T: Pie baicai
L: 1/8
M: 2/4
K: G
G G G E [I:setbarnb 1]| 
e g/ e/d2 | 
e d c B/ A/ | 
G4 | 
B B d B/ A/ | 
G BA2 | 
e a g/ a/ g/ e/ | 
d4 | 
G G G E | 
e gd2 | 
e d c/ c/ c/ A/ | 
G4 |]

@@@ Tune index: 9391
